assets/alprola.svg

<?xml version="1.0" encoding="UTF-8" standalone="no"?><!DOCTYPE svg PUBLIC "-//W3C//DTD SVG 1.1//EN" "http://www.w3.org/Graphics/SVG/1.1/DTD/svg11.dtd"><svg width="100%" height="100%" viewBox="0 0 266 56" version="1.1" xmlns="http://www.w3.org/2000/svg" xmlns:xlink="http://www.w3.org/1999/xlink" xml:space="preserve" style="fill-rule:evenodd;clip-rule:evenodd;stroke-linejoin:round;stroke-miterlimit:1.41421;"><g><path d="M26.21,55.351l-3.825,-17.256l-15.792,0l-3.825,17.256l-2.768,0l12.21,-55.025l4.558,0l12.21,55.025l-2.768,0Zm-19.047,-19.942l14.652,0l-7.326,-32.886l-7.326,32.886Z" style="fill-rule:nonzero;"/><path d="M47.537,52.665l17.419,0l0,2.686l-17.419,0l-2.686,0l0,-55.025l2.686,0l0,52.339Z" style="fill-rule:nonzero;"/><path d="M90.76,0.326c1.628,0 3.134,0.312 4.518,0.936c1.383,0.624 2.604,1.465 3.663,2.523c1.058,1.058 1.885,2.293 2.482,3.704c0.597,1.411 0.896,2.903 0.896,4.477l0,11.233c0,1.574 -0.285,3.039 -0.855,4.395c-0.57,1.357 -1.357,2.551 -2.361,3.582c-1.004,1.031 -2.17,1.872 -3.5,2.523c-1.329,0.651 -2.754,1.031 -4.273,1.14l-0.407,0l-0.326,0l-7.896,0l0,20.512l-2.686,0l0,-55.025l10.745,0Zm8.872,11.64c0,-1.194 -0.244,-2.334 -0.732,-3.419c-0.489,-1.085 -1.14,-2.035 -1.954,-2.849c-0.814,-0.814 -1.763,-1.465 -2.849,-1.954c-1.085,-0.488 -2.252,-0.732 -3.5,-0.732l-7.896,0l0,29.141l8.059,0c1.248,0 2.415,-0.245 3.5,-0.733c1.085,-0.488 2.021,-1.139 2.808,-1.953c0.787,-0.814 1.411,-1.751 1.873,-2.809c0.461,-1.058 0.691,-2.211 0.691,-3.459l0,-11.233Z" style="fill-rule:nonzero;"/><path d="M129.994,32.153l-6.674,0l0,23.198l-2.687,0l0,-23.198l0,-2.686l0,-26.455l0,-2.686l9.9,0c1.621,0 3.147,0.298 4.579,0.895c1.432,0.597 2.675,1.425 3.729,2.483c1.053,1.058 1.891,2.292 2.512,3.703c0.622,1.411 0.932,2.931 0.932,4.559l0,8.547c0,1.411 -0.244,2.74 -0.732,3.988c-0.489,1.248 -1.167,2.388 -2.035,3.419c-0.868,1.031 -1.872,1.886 -3.012,2.564c-1.139,0.678 -2.388,1.153 -3.744,1.424l9.93,23.443l-2.848,0l-9.85,-23.198Zm-6.674,-2.686l7.244,0c1.248,0 2.415,-0.231 3.5,-0.692c1.085,-0.462 2.035,-1.099 2.849,-1.913c0.814,-0.814 1.465,-1.764 1.954,-2.849c0.488,-1.086 0.732,-2.252 0.732,-3.5l0,-7.082l0,-1.465c0,-1.194 -0.244,-2.334 -0.732,-3.419c-0.489,-1.085 -1.14,-2.035 -1.954,-2.849c-0.814,-0.814 -1.764,-1.465 -2.849,-1.954c-1.085,-0.488 -2.252,-0.732 -3.5,-0.732l-7.244,0l0,26.455Z" style="fill-rule:nonzero;"/><path d="M172.891,55.758c-1.627,0 -3.16,-0.312 -4.599,-0.936c-1.438,-0.624 -2.686,-1.465 -3.744,-2.523c-1.058,-1.058 -1.899,-2.306 -2.523,-3.744c-0.624,-1.438 -0.936,-2.971 -0.936,-4.599l0,-32.153c0,-1.628 0.312,-3.161 0.936,-4.599c0.624,-1.438 1.465,-2.686 2.523,-3.744c1.058,-1.059 2.306,-1.9 3.744,-2.524c1.439,-0.624 2.972,-0.936 4.599,-0.936c1.628,0 3.148,0.312 4.559,0.936c1.411,0.624 2.645,1.465 3.703,2.524c1.059,1.058 1.9,2.306 2.524,3.744c0.624,1.438 0.936,2.971 0.936,4.599l0,32.153c0,1.628 -0.312,3.161 -0.936,4.599c-0.624,1.438 -1.465,2.686 -2.524,3.744c-1.058,1.058 -2.292,1.899 -3.703,2.523c-1.411,0.624 -2.931,0.936 -4.559,0.936Zm0,-53.072c-1.248,0 -2.428,0.245 -3.54,0.734c-1.113,0.489 -2.076,1.142 -2.89,1.957c-0.814,0.815 -1.465,1.766 -1.954,2.853c-0.488,1.087 -0.732,2.256 -0.732,3.506l0,32.204c0,1.251 0.244,2.433 0.732,3.547c0.489,1.115 1.14,2.079 1.954,2.895c0.814,0.815 1.777,1.467 2.89,1.956c1.112,0.49 2.292,0.734 3.54,0.734c1.249,0 2.415,-0.244 3.501,-0.734c1.085,-0.489 2.035,-1.141 2.849,-1.956c0.814,-0.816 1.465,-1.78 1.953,-2.895c0.489,-1.114 0.733,-2.296 0.733,-3.547l0,-32.204c0,-1.25 -0.244,-2.419 -0.733,-3.506c-0.488,-1.087 -1.139,-2.038 -1.953,-2.853c-0.814,-0.815 -1.764,-1.468 -2.849,-1.957c-1.086,-0.489 -2.252,-0.734 -3.501,-0.734Z" style="fill-rule:nonzero;"/><path d="M205.614,52.665l17.419,0l0,2.686l-17.419,0l-2.686,0l0,-55.025l2.686,0l0,52.339Z" style="fill-rule:nonzero;"/><path d="M262.675,55.351l-3.826,-17.256l-15.792,0l-3.825,17.256l-2.768,0l12.21,-55.025l4.558,0l12.21,55.025l-2.767,0Zm-19.048,-19.942l14.652,0l-7.326,-32.886l-7.326,32.886Z" style="fill-rule:nonzero;"/></g></svg>

<?xml version="1.0" encoding="UTF-8" standalone="no"?>
<!DOCTYPE svg PUBLIC "-//W3C//DTD SVG 1.1//EN" "http://www.w3.org/Graphics/SVG/1.1/DTD/svg11.dtd">
<svg width="100%" height="100%" viewBox="0 0 266 56" version="1.1" xmlns="http://www.w3.org/2000/svg" xmlns:xlink="http://www.w3.org/1999/xlink" xml:space="preserve" style="fill-rule:evenodd;clip-rule:evenodd;stroke-linejoin:round;stroke-miterlimit:1.41421;">
    <g transform="matrix(0.964429,0,0,0.964429,6.31865e-17,1.38221e-16)">
        <g transform="matrix(0.78125,0,0,0.743845,3.88578e-16,9.95362e-16)">
            <path d="M26.21,55.351L22.385,38.095L6.593,38.095L2.768,55.351L0,55.351L12.21,0.326L16.768,0.326L28.978,55.351L26.21,55.351ZM7.163,35.409L21.815,35.409L14.489,2.523L7.163,35.409L7.163,35.409Z" style="fill:white;fill-rule:nonzero;"/>
        </g>
        <g transform="matrix(0.78125,0,0,0.743845,3.88578e-16,9.95362e-16)">
            <path d="M47.537,52.665L64.956,52.665L64.956,55.351L47.537,55.351L44.851,55.351L44.851,0.326L47.537,0.326L47.537,52.665Z" style="fill:white;fill-rule:nonzero;"/>
        </g>
        <g transform="matrix(0.78125,0,0,0.743845,3.88578e-16,9.95362e-16)">
            <path d="M90.76,0.326C92.388,0.326 93.894,0.638 95.278,1.262C96.661,1.886 97.882,2.727 98.941,3.785C99.999,4.843 100.826,6.078 101.423,7.489C102.02,8.9 102.319,10.392 102.319,11.966L102.319,23.199C102.319,24.773 102.034,26.238 101.464,27.594C100.894,28.951 100.107,30.145 99.103,31.176C98.099,32.207 96.933,33.048 95.603,33.699C94.274,34.35 92.849,34.73 91.33,34.839L90.923,34.839L90.597,34.839L82.701,34.839L82.701,55.351L80.015,55.351L80.015,0.326L90.76,0.326ZM99.632,11.966C99.632,10.772 99.388,9.632 98.9,8.547C98.411,7.462 97.76,6.512 96.946,5.698C96.132,4.884 95.183,4.233 94.097,3.744C93.012,3.256 91.845,3.012 90.597,3.012L82.701,3.012L82.701,32.153L90.76,32.153C92.008,32.153 93.175,31.908 94.26,31.42C95.345,30.932 96.281,30.281 97.068,29.467C97.855,28.653 98.479,27.716 98.941,26.658C99.402,25.6 99.632,24.447 99.632,23.199L99.632,11.966L99.632,11.966Z" style="fill:white;fill-rule:nonzero;"/>
        </g>
        <g transform="matrix(0.78125,0,0,0.743845,3.88578e-16,9.95362e-16)">
            <path d="M129.994,32.153L123.32,32.153L123.32,55.351L120.633,55.351L120.633,32.153L120.633,29.467L120.633,3.012L120.633,0.326L130.533,0.326C132.154,0.326 133.68,0.624 135.112,1.221C136.544,1.818 137.787,2.646 138.841,3.704C139.894,4.762 140.732,5.996 141.353,7.407C141.975,8.818 142.285,10.338 142.285,11.966L142.285,20.513C142.285,21.924 142.041,23.253 141.553,24.501C141.064,25.749 140.386,26.889 139.518,27.92C138.65,28.951 137.646,29.806 136.506,30.484C135.367,31.162 134.118,31.637 132.762,31.908L142.692,55.351L139.844,55.351L129.994,32.153ZM123.32,29.467L130.564,29.467C131.812,29.467 132.979,29.236 134.064,28.775C135.149,28.313 136.099,27.676 136.913,26.862C137.727,26.048 138.378,25.098 138.867,24.013C139.355,22.927 139.599,21.761 139.599,20.513L139.599,13.431L139.599,11.966C139.599,10.772 139.355,9.632 138.867,8.547C138.378,7.462 137.727,6.512 136.913,5.698C136.099,4.884 135.149,4.233 134.064,3.744C132.979,3.256 131.812,3.012 130.564,3.012L123.32,3.012L123.32,29.467Z" style="fill:white;fill-rule:nonzero;"/>
        </g>
        <g transform="matrix(0.78125,0,0,0.743845,3.88578e-16,9.95362e-16)">
            <path d="M172.891,55.758C171.264,55.758 169.731,55.446 168.292,54.822C166.854,54.198 165.606,53.357 164.548,52.299C163.49,51.241 162.649,49.993 162.025,48.555C161.401,47.117 161.089,45.584 161.089,43.956L161.089,11.803C161.089,10.175 161.401,8.642 162.025,7.204C162.649,5.766 163.49,4.518 164.548,3.46C165.606,2.401 166.854,1.56 168.292,0.936C169.731,0.312 171.264,0 172.891,0C174.519,0 176.039,0.312 177.45,0.936C178.861,1.56 180.095,2.401 181.153,3.46C182.212,4.518 183.053,5.766 183.677,7.204C184.301,8.642 184.613,10.175 184.613,11.803L184.613,43.956C184.613,45.584 184.301,47.117 183.677,48.555C183.053,49.993 182.212,51.241 181.153,52.299C180.095,53.357 178.861,54.198 177.45,54.822C176.039,55.446 174.519,55.758 172.891,55.758L172.891,55.758ZM172.891,2.686C171.643,2.686 170.463,2.931 169.351,3.42C168.238,3.909 167.275,4.562 166.461,5.377C165.647,6.192 164.996,7.143 164.507,8.23C164.019,9.317 163.775,10.486 163.775,11.736L163.775,43.94C163.775,45.191 164.019,46.373 164.507,47.487C164.996,48.602 165.647,49.566 166.461,50.382C167.275,51.197 168.238,51.849 169.351,52.338C170.463,52.828 171.643,53.072 172.891,53.072C174.14,53.072 175.306,52.828 176.392,52.338C177.477,51.849 178.427,51.197 179.241,50.382C180.055,49.566 180.706,48.602 181.194,47.487C181.683,46.373 181.927,45.191 181.927,43.94L181.927,11.736C181.927,10.486 181.683,9.317 181.194,8.23C180.706,7.143 180.055,6.192 179.241,5.377C178.427,4.562 177.477,3.909 176.392,3.42C175.306,2.931 174.14,2.686 172.891,2.686L172.891,2.686Z" style="fill:white;fill-rule:nonzero;"/>
        </g>
        <g transform="matrix(0.78125,0,0,0.743845,3.88578e-16,9.95362e-16)">
            <path d="M205.614,52.665L223.033,52.665L223.033,55.351L205.614,55.351L202.928,55.351L202.928,0.326L205.614,0.326L205.614,52.665Z" style="fill:white;fill-rule:nonzero;"/>
        </g>
        <g transform="matrix(0.78125,0,0,0.743845,3.88578e-16,9.95362e-16)">
            <path d="M262.675,55.351L258.849,38.095L243.057,38.095L239.232,55.351L236.464,55.351L248.674,0.326L253.232,0.326L265.442,55.351L262.675,55.351ZM243.627,35.409L258.279,35.409L250.953,2.523L243.627,35.409Z" style="fill:white;fill-rule:nonzero;"/>
        </g>
    </g>
</svg>
